src/icons/classification-new.icon.svg

<svg width="24px" height="24px" viewBox="0 0 24 24" version="1.1" xmlns="http://www.w3.org/2000/svg" xmlns:xlink="http://www.w3.org/1999/xlink">
    <path d="M12,22 C17.5228475,22 22,17.5228475 22,12 C22,6.4771525 17.5228475,2 12,2 C6.4771525,2 2,6.4771525 2,12 C2,17.5228475 6.4771525,22 12,22 Z" id="bg_icon" fill="#BFD72F"></path>
    <path d="M15.6804689,16.0666994 L12.8223634,16.0666994 L9.87597659,10.3835938 L9.82631839,10.3835938 C9.89620806,11.2774459 9.93115238,11.9597796 9.93115238,12.4306153 L9.93115238,16.0666994 L8,16.0666994 L8,8 L10.8470704,8 L13.782422,13.6058595 L13.8155274,13.6058595 C13.7640298,12.7929322 13.7382813,12.1400253 13.7382813,11.6471192 L13.7382813,8 L15.6804689,8 L15.6804689,16.0666994 Z" id="N" fill="#FFFFFF"></path>
</svg>

<svg xmlns="http://www.w3.org/2000/svg" viewBox="0 0 24 24"><path d="M12 22c5.523 0 10-4.477 10-10S17.523 2 12 2 2 6.477 2 12s4.477 10 10 10z" fill="#BFD72F"/><path d="M15.68 16.067h-2.858l-2.946-5.683h-.05c.07.893.105 1.576.105 2.047v3.636H8V8h2.847l2.935 5.606h.034a32.48 32.48 0 01-.078-1.959V8h1.942v8.067z" fill="#FFF"/></svg>
